X:241
T: Lavena
T:for Picking of Sticks
M: 6/8
L: 1/8
K: Dm
d|"Dm"d2d "A7"^c3/2B/c |"Dm"d2dA2d|"Dm""Bb"d2d "A7"^c3/2B/c |"Dm"d3A2B|
 "Gm"B3/2d/c  "C7"B3/2c/B | "F"A3/2B/A  "C7""Gm"G3/2F/E | "F""Dm"F3/2G/A  "Gm"G3/2A/F |"A7"E3"Dm"D3|] 

